usr/share/icons/biglinux-icons-material/16/actions/text-frame-unlink.svg

<svg xmlns="http://www.w3.org/2000/svg" viewBox="0 0 16 16"><path d="M2 2v12h6V2H2Zm1 1h4v10H3V3Zm1 1v1h2V4H4Zm0 2v1h2V6H4Zm0 2v1h1V8H4Z" style="fill:currentColor;fill-opacity:1;stroke:none;color:#dedede"/><path d="M9 2v12h5V2h-4zm1 1h3v10h-3z" style="fill:currentColor;fill-opacity:1;stroke:none;color:#da4453"/></svg>

<svg xmlns="http://www.w3.org/2000/svg" viewBox="0 0 16 16">
  <defs id="defs3051">
    <style type="text/css" id="current-color-scheme">
      .ColorScheme-Text {
        color:#363636;
      }
      .ColorScheme-NegativeText {
        color:#da4453;
      }
      </style>
  </defs>
  <path 
     style="fill:currentColor;fill-opacity:1;stroke:none" 
     d="M 2,2 2,14 8,14 8,2 2,2 Z M 3,3 7,3 7,13 3,13 3,3 Z M 4,4 4,5 6,5 6,4 4,4 Z M 4,6 4,7 6,7 6,6 4,6 Z M 4,8 4,9 5,9 5,8 4,8 Z"
     class="ColorScheme-Text"/>
  <path
      style="fill:currentColor;fill-opacity:1;stroke:none" 
     class="ColorScheme-NegativeText"
   d="m 9,2 0,12 5,0 0,-12 -4,0 z m 1,1 3,0 0,10 -3,0 z" />
</svg>
